app/images/icons/user.svg

<?xml version="1.0" encoding="UTF-8"?>
<svg xmlns="http://www.w3.org/2000/svg" xmlns:xlink="http://www.w3.org/1999/xlink" width="16pt" height="16pt" viewBox="0 0 16 16" version="1.1">
<g id="surface1">
<path style=" stroke:none;fill-rule:nonzero;fill:rgb(0%,0%,0%);fill-opacity:1;" d="M 13.65625 10.34375 C 12.785156 9.472656 11.75 8.828125 10.617188 8.4375 C 11.828125 7.601562 12.625 6.203125 12.625 4.625 C 12.625 2.074219 10.550781 0 8 0 C 5.449219 0 3.375 2.074219 3.375 4.625 C 3.375 6.203125 4.171875 7.601562 5.382812 8.4375 C 4.25 8.828125 3.214844 9.472656 2.34375 10.34375 C 0.832031 11.855469 0 13.863281 0 16 L 1.25 16 C 1.25 12.277344 4.277344 9.25 8 9.25 C 11.722656 9.25 14.75 12.277344 14.75 16 L 16 16 C 16 13.863281 15.167969 11.855469 13.65625 10.34375 Z M 8 8 C 6.140625 8 4.625 6.484375 4.625 4.625 C 4.625 2.765625 6.140625 1.25 8 1.25 C 9.859375 1.25 11.375 2.765625 11.375 4.625 C 11.375 6.484375 9.859375 8 8 8 Z M 8 8 "/>
</g>
</svg>

<svg xmlns="http://www.w3.org/2000/svg" width="16pt" height="16pt" viewBox="0 0 16 16"><path d="M13.656 10.344a7.958 7.958 0 00-3.039-1.906 4.631 4.631 0 002.008-3.813A4.63 4.63 0 008 0a4.63 4.63 0 00-4.625 4.625c0 1.578.797 2.977 2.008 3.813a7.958 7.958 0 00-3.04 1.906A7.945 7.945 0 000 16h1.25A6.757 6.757 0 018 9.25 6.757 6.757 0 0114.75 16H16a7.945 7.945 0 00-2.344-5.656zM8 8a3.38 3.38 0 01-3.375-3.375A3.38 3.38 0 018 1.25a3.38 3.38 0 013.375 3.375A3.38 3.38 0 018 8zm0 0"/></svg>
